public/icons/icon/image.svg

<svg width="30" height="30" viewBox="0 0 30 30" fill="none" xmlns="http://www.w3.org/2000/svg">
<path fill-rule="evenodd" clip-rule="evenodd" d="M15 7.39844C13.0109 7.39844 11.3984 9.01091 11.3984 11C11.3984 12.9891 13.0109 14.6016 15 14.6016C16.9891 14.6016 18.6016 12.9891 18.6016 11C18.6016 9.01091 16.9891 7.39844 15 7.39844ZM13.3984 11C13.3984 10.1155 14.1155 9.39844 15 9.39844C15.8845 9.39844 16.6016 10.1155 16.6016 11C16.6016 11.8845 15.8845 12.6016 15 12.6016C14.1155 12.6016 13.3984 11.8845 13.3984 11Z" fill="black"/>
<path fill-rule="evenodd" clip-rule="evenodd" d="M4.5 2H25.5C26.8807 2 28 3.11929 28 4.5V25.5C28 26.8807 26.8807 28 25.5 28H4.5C3.11929 28 2 26.8807 2 25.5V4.5C2 3.11929 3.11929 2 4.5 2ZM26 4.5V18.5858L22.7071 15.2929C22.3166 14.9024 21.6834 14.9024 21.2929 15.2929L15.7496 20.8362L8.731 13.3176C8.54595 13.1194 8.28833 13.0048 8.01719 13.0001C7.74605 12.9955 7.48465 13.1011 7.29289 13.2929L4 16.5858V4.5C4 4.22386 4.22386 4 4.5 4H25.5C25.7761 4 26 4.22386 26 4.5ZM4 25.5V19.4142L7.97526 15.439L14.9886 22.9519L17.7474 26H4.5C4.22386 26 4 25.7761 4 25.5ZM25.5 26H20.4449L17.1047 22.3095L22 17.4142L26 21.4142V25.5C26 25.7761 25.7761 26 25.5 26Z" fill="black"/>
</svg>

<svg xmlns="http://www.w3.org/2000/svg" width="30" height="30" fill="none"><path fill="#000" fill-rule="evenodd" d="M15 7.398a3.602 3.602 0 1 0 0 7.204 3.602 3.602 0 0 0 0-7.204ZM13.398 11a1.602 1.602 0 1 1 3.204 0 1.602 1.602 0 0 1-3.204 0Z" clip-rule="evenodd"/><path fill="#000" fill-rule="evenodd" d="M4.5 2h21A2.5 2.5 0 0 1 28 4.5v21a2.5 2.5 0 0 1-2.5 2.5h-21A2.5 2.5 0 0 1 2 25.5v-21A2.5 2.5 0 0 1 4.5 2ZM26 4.5v14.086l-3.293-3.293a1 1 0 0 0-1.414 0l-5.543 5.543-7.019-7.518a1 1 0 0 0-1.438-.025L4 16.586V4.5a.5.5 0 0 1 .5-.5h21a.5.5 0 0 1 .5.5Zm-22 21v-6.086l3.975-3.975 7.014 7.513L17.747 26H4.5a.5.5 0 0 1-.5-.5Zm21.5.5h-5.055l-3.34-3.69L22 17.413l4 4V25.5a.5.5 0 0 1-.5.5Z" clip-rule="evenodd"/></svg>
